!!!!SEGMENT: pl-wumfc--r303_paderewski-ignacy-jan--preambule.krn
!!!cenid: 18xx:3219
!!!COM: Paderewski, Ignacy Jan
!!!COM-rismid: pe30029943
!!!CDT: 1860/11/18-1941/06/29
!!!CNT: Polish
!!!OTL: Preambule
!!!PDT:
!!!AGN:
!!!SMS-siglum: PL-Wumfc
!!!SMS-shelfmark: R303
!!!SMS-shelfwork: W
!!!SMS-variant:
!!!SMS-altvar:
!!!NIFC-rismid: 1001159513
!!!URL-scan: http://repozytorium.nifc.pl/skany/pl-wumfc--r303
!!!ONB-nifc:
!!!key: G
**kern	**fing	**kern	**fing
*part2	*	*part1	*
*staff2	*	*staff1	*
*I"[Fortepian]	*	*I"[Fortepian]	*
*Ipiano	*	*Ipiano	*
*ICklav	*	*ICklav	*
*IGsolo	*	*IGsolo	*
*clefF4	*	*clefG2	*
*k[f#]	*	*k[f#]	*
*g:	*	*g:	*
*M2/4	*	*M2/4	*
=1	=1	=1	=1
[2DD [2GGG\	.	8r	.
.	.	8d/	.
.	.	(16qqd/LL	.
.	.	16qqe/JJ	.
.	.	8d^>/L)	.
.	.	16c/L	.
.	.	16B/JJ	.
=2	=2	=2	=2
*2\right	*	*	*
2DD_ 2GGG\_	.	16d/LL	.
.	.	16c/	.
.	.	16B/	.
.	.	16d/JJ	.
.	.	16c/LL	.
.	.	16B/	.
.	.	16A/	.
.	.	16c/JJ	.
=3	=3	=3	=3
2DD_ 2GGG\_	.	16B/LL	.
.	.	16d/	.
.	.	16B/	.
.	.	16d/JJ	.
.	.	16c/LL	.
.	.	16e/	.
.	.	16A/	.
.	.	16f#/JJ	.
=4	=4	=4	=4
2DD_ 2GGG\_	.	16B/LL	.
.	.	16g/	.
.	.	16d/	.
.	.	16a/JJ	.
.	.	16g/LL	.
.	.	16b/	.
.	.	16a/	.
.	.	16cc/JJ	.
=5	=5	=5	=5
8DD] 8GGG\]	.	16b/LL	.
.	.	16dd/	.
8d\	.	16ddd/	.
.	.	16dd/JJ	.
(16qqd\LL	.	.	.
16qqe\JJ	.	.	.
8d\L)	.	16ddd/LL	.
.	.	16dd/	.
16c\L	.	16ddd/	.
16B\JJ	.	[16dd/JJ	.
=6	=6	=6	=6
16d\LL	.	8dd/L]	.
16c\	.	.	.
16B\	.	8dd'>/	.
16d\JJ	.	.	.
16c\LL	.	8ee'>/	.
16B\	.	.	.
16A\	.	8ff#'>/J	.
16c\JJ	.	.	.
=7	=7	=7	=7
16B\LL	.	8gg'\L	.
16d\	.	.	.
16B\	.	8gg'\J	.
16d\JJ	.	.	.
16c\LL	.	8aa'\L	.
16e\	.	.	.
16A\	.	[8ddd\J	.
16e\JJ	.	.	.
!!LO:LB:g=original
=8	=8	=8	=8
16B\LL	.	8ddd/]	.
16g\	.	.	.
16d\	.	4ddd/	.
16a\JJ	.	.	.
16g>\LL	.	.	.
16b>\	.	.	.
16a>\	.	[>8ddd/	.
16cc>\JJ	.	.	.
=9	=9	=9	=9
16b>\LL	.	8ddd/L]	.
16dd>\	.	.	.
16ee>\	.	8ddd/J	.
16dd>\JJ	.	.	.
16b>\LL	.	8dddM/L	.
16dd>\	.	.	.
16ee>\	.	16ccc/L	.
16dd>\JJ	.	16bb/JJ	.
=10	=10	=10	=10
16a>\LL	.	16ccc/LL	.
16dd>\	.	16bb/	.
16ee>\	.	16aa/	.
16dd>\JJ	.	16ccc/JJ	.
16f#>\LL	.	16bb/LL	.
16dd>\	.	16aa/	.
16ee>\	.	16gg/	.
16dd>\JJ	.	16bb/JJ	.
=11	=11	=11	=11
16f#>\LL	.	8aa'>/L	.
16a>\	.	.	.
16b>\	.	8aa'>/J	.
16a>\JJ	.	.	.
16f#>\LL	.	8aaM/L	.
16a>\	.	.	.
16b>\	.	16gg/L	.
16a>\JJ	.	16ff#/JJ	.
=12	=12	=12	=12
16e>\LL	.	16gg/LL	.
16a>\	.	16ff#/	.
16b>\	.	16ee/	.
16a>\JJ	.	16gg/JJ	.
16d>\LL	.	16ff#/LL	.
16a>\	.	16ee/	.
16b>\	.	16dd/	.
16g>\JJ	.	16ee/JJ	.
=13	=13	=13	=13
8a>\L	.	16ff#/LL	3
.	.	16gg/	4
8g>\	.	16ee/	2
.	.	16aa/JJ	5
8f#>\	.	16dd/LL	1
.	.	16ee/	3
[8A>\J	.	16cc#X/	2
.	.	16aa/JJ	5
=14	=14	=14	=14
8A>\L]	.	16b/LL	1
.	.	16cc#X/	3
8c#X>\J	.	16a/	1
.	.	16b/JJ	2
8aaa>M/	.	16cc#/LL	.
.	.	16dd/	1
8r>	.	16ee/	2
.	.	16gg/JJ	1
!!LO:LB:g=original
=15	=15	=15	=15
*^	*	*	*
*	*2\left	*	*	*
8a>'\L	[2A\	.	16ff#/LL	.
.	.	.	16gg/	.
8g>'\	.	.	16ee/	.
.	.	.	16aa/JJ	.
8f#>'\	.	.	16dd/LL	.
.	.	.	16ee/	.
8e>'\J	.	.	16cc#X/	.
.	.	.	16aa/JJ	.
=16	=16	=16	=16	=16
8d>\L	4A\]	.	16b/LL	.
.	.	.	16cc#X/	.
8c#X>\J	.	.	16a/	.
.	.	.	16b/JJ	.
8aaa>^>/	4ryy	.	16cc#/LL	.
.	.	.	16dd/	.
8r	.	.	16ee/	.
.	.	.	16gg/JJ	.
*v	*v	*	*	*
=17	=17	=17	=17
8a>'\L	.	16ff#/LL	.
.	.	16gg/	.
8g>'\	.	16ee/	.
.	.	16ff#/JJ	.
8f#>'\	.	16dd/LL	.
.	.	16ee/	.
8e>'\J	.	16b/	.
.	.	16cc#X/JJ	.
=18	=18	=18	=18
16f#>\LL	.	8dd'>/L	.
16g>\	.	.	.
16e>\	.	8cc#X'>/	.
16f#>\JJ	.	.	.
16d>\LL	.	8b'>/	.
16e>\	.	.	.
16c#X>\	.	8a#X'>/J	.
16e>\JJ	.	.	.
=19	=19	=19	=19
16d>LL 16G>\	.	16b/LL	.
16c#X>\	.	16a#X/	.
16d>\	.	16b/	.
16e>\JJ	.	16cc#X/JJ	.
16f#>\LL	.	16dd/LL	.
16e>\	.	16cc#/	.
16f#>\	.	16dd/	.
16g>\JJ	.	16ee/JJ	.
=20	=20	=20	=20
!	!	!LO:TUP:a:problem:klamra łukowa	!
8a>'\L	.	24ff#/LL	.
.	.	24gg/	.
.	.	24ff#/	.
8b>'\	.	24gg/	.
.	.	24ff#/	.
.	.	24gg/JJ	.
8a>'\	.	16ff#/LL	.
.	.	16ee/	.
8g>'\J	.	16bb/	.
.	.	16ee/JJ	.
=21	=21	=21	=21
*^	*	*	*
8f#>'\L	[<2F#\	.	16dd/LL	3
.	.	.	16ee/	4
8e>'\	.	.	16cc#X/	2
.	.	.	16ff#/JJ	5
8d>'\	.	.	16b/LL	1
.	.	.	16cc#/	3
8c#X>'\J	.	.	16a#X/	2
.	.	.	16ff#/JJ	5
=22	=22	=22	=22	=22
8B>\L	4F#\]	.	16g#X/LL	.
.	.	.	16a/	.
8A#X>\J	.	.	16f#/	.
.	.	.	16g#/JJ	.
8fff#>/	4ryy	.	16a/LL	.
.	.	.	16b/	.
8rfff>	.	.	16cc/	.
.	.	.	16ee/JJ	.
!!LO:LB:g=original
=23	=23	=23	=23	=23
8f#>\L	[<2F#\	.	16dd/LL	.
.	.	.	16ee/	.
8e>\	.	.	16cc#X/	.
.	.	.	16ff#/JJ	.
8d>\	.	.	16b/LL	.
.	.	.	16cc#X/	.
8c#X>\J	.	.	16a#X/	.
.	.	.	16ff#/JJ	.
=24	=24	=24	=24	=24
8B>\L	4F#\]	.	16g#X/LL	.
.	.	.	16a/	.
8A#X>\J	.	.	16f#/	.
.	.	.	16g#/JJ	.
8fff#>/	4ryy	.	16a/LL	.
.	.	.	16b/	.
8r	.	.	16cc/	.
.	.	.	16ee/JJ	.
*v	*v	*	*	*
=25	=25	=25	=25
8f#>\L	.	16dd/LL	.
.	.	16ee/	.
8e>\	.	16cc#X/	.
.	.	16dd/JJ	.
8d>\	.	16b/LL	.
.	.	16cc#/	.
8c#X>\J	.	16g#X/	.
.	.	16a#X/JJ	.
=26	=26	=26	=26
16d>\LL	.	8b/L	.
16e>\	.	.	.
16cn>\	.	8an/	.
16d>\JJ	.	.	.
16B\LL	.	8g/	.
16c\	.	.	.
16A\	.	8f#/J	.
16c\JJ	.	.	.
=27	=27	=27	=27
8B\L	.	16g/LL	.
.	.	16a/	.
8A\	1	16f#/	.
.	.	16g/JJ	.
8G\	.	16e/LL	.
.	.	16f#/	.
8F#\J	.	16c#X/	.
.	.	16d#X/JJ	.
=28	=28	=28	=28
16G\LL	.	8e/L	.
16A\	.	.	.
16F#\	.	8d#X/	.
16G\JJ	.	.	.
16E\LL	.	8e/	.
16F#\	.	.	.
16BB\	.	8f#/J	.
16D#X\JJ	.	.	.
=29	=29	=29	=29
8E\L	.	16gLL 16e/	1 3
.	.	16a/	4
8BB\J	.	16f# 16d#X/	1 3
.	.	16b/JJ	5
4EE\	.	16gLL 16e/	.
.	.	16a/	.
.	.	16f# 16d#/	.
.	.	16b/JJ	.
=30	=30	=30	=30
8B\L	.	16gLL 16e/	.
.	.	16a/	.
8BB\J	.	16f# 16d#X/	.
.	.	16b/JJ	.
4EE\	.	16gLL 16e/	.
.	.	16a/	.
.	.	16f# 16d#/	.
.	.	16b/JJ	.
!!LO:LB:g=original
=31	=31	=31	=31
16E\LL	.	8gL 8e/	.
16D#X\	.	.	.
16E\	.	8gg/J	.
16F#\JJ	.	.	.
16G\LL	.	8bL 8g/	.
16F#\	.	.	.
16G\	.	8bb/J	.
16A\JJ	.	.	.
=32	=32	=32	=32
16B\LL	.	8eeL 8b/	.
16A\	.	.	.
16B\	.	8eee/J	.
16c#X\JJ	.	.	.
16d\LL	.	8ggL 8ee/	.
16c#\	.	.	.
16d\	.	8ggg/J	.
16e\JJ	.	.	.
=33	=33	=33	=33
8f#\L	.	16ddLL 16b/	.
.	.	16ee/	.
8F#\J	.	16cc#X 16a#X/	.
.	.	16ff#/JJ	.
4BB\	.	16ddLL 16b/	.
.	.	16ee/	.
.	.	16dd 16a#/	.
.	.	16ff#/JJ	.
=34	=34	=34	=34
8f#\L	.	16ddLL 16b/	.
.	.	16ee/	.
8F#\J	.	16cc#X 16a#X/	.
.	.	16ff#/JJ	.
4BB\	.	16b/LL	.
.	.	16ee/	.
.	.	16cc# 16a#/	.
.	.	16ff#/JJ	.
=35	=35	=35	=35
16B\LL	.	8ddL 8b\	.
16A#X\	.	.	.
16B\	.	8ddd\J	.
16c#X\JJ	.	.	.
16d\LL	.	8ff#L 8dd\	.
16c#\	.	.	.
16d\	.	8fff#\J	.
16e\JJ	.	.	.
=36	=36	=36	=36
16f#\LL	.	8dddL 8bb\	.
16c#X\	.	.	.
16d\	.	8ggg\J	.
16e\JJ	.	.	.
*	*	*8va	*
16f#>\LL	.	8fff#/L	.
16e>\	.	.	.
16f#>\	.	8dddd/J	.
16g>\JJ	.	.	.
*	*	*X8va	*
=37	=37	=37	=37
8a>\L	.	16ff#LL 16dd/	.
.	.	16gg/	.
8A\J	.	16ee 16cc#X/	.
.	.	16aa/JJ	.
*	*	*rep	*
4AA\	.	16ff#LL 16dd/	.
.	.	16gg/	.
.	.	16ee 16cc#/	.
.	.	16aa/JJ	.
*	*	*Xrep	*
=38	=38	=38	=38
8a>\L	.	16eeLL 16cc/	.
.	.	16gg/	.
8A\J	.	16ee 16cc#X/	.
.	.	16aa/JJ	.
*	*	*rep	*
4AA\	.	16eeLL 16cc#/	.
.	.	16gg/	.
.	.	16ee 16cc#/	.
.	.	16aa/JJ	.
*	*	*Xrep	*
!!LO:LB:g=original
=39	=39	=39	=39
16e>LL 16A>\	.	16cc#X/LL	.
16f#>\	.	16dd/	.
16g>\	.	16ee/	.
16a>\JJ	.	16ff#/JJ	.
16b>\LL	.	16gg/LL	.
16cc>\	.	16aa/	.
16dd>\	.	16bb/	.
16cc>\JJ	.	16aa/JJ	.
=40	=40	=40	=40
16ee>\LL	.	16bb/LL	.
16dd>\	.	16ccc#X/	.
16ee>\	.	16ddd/	.
16ff#>\JJ	.	16eee/	.
*Xtuplet	*	*Xbrackettup	*
20gg>\LL	.	20fff#/	.
20aa>\	.	20ggg/	.
*	*	*8va	*
20dd> 20a>\	.	20aaa/	.
20ee>\	.	20bbb/	.
20ee>JJ 20f#>\	.	20cccc#X/JJ	.
=41	=41	=41	=41
4d>\	.	16dddd/LL	.
.	.	16fff#/	.
.	.	16aaa/	.
.	.	16eee/JJ	.
4a^\	.	16dddd/LL	.
.	.	16fff#/	.
.	.	16aaa/	.
.	.	16eee/JJ	.
=42	=42	=42	=42
4A\	.	16dddd/LL	.
.	.	16fff#/	.
.	.	16aaa/	.
.	.	16eee/JJ	.
4AA\	.	16dddd/LL	.
.	.	16fff#/	.
.	.	16aaa/	.
.	.	16eee/JJ	.
=43	=43	=43	=43
4AA 4DD\	.	16dddd/LL	.
.	.	16fff#/	.
.	.	16aaa/	.
.	.	16eee/JJ	.
16a>\LL	.	16aaaLL 16fff#/	.
16g>\	.	16eee/	.
16a>\	.	16fff#/	.
16g>\JJ	.	16eee/JJ	.
=44	=44	=44	=44
16a>\LL	.	16aaaLL 16fff#/	.
16g>\	.	16eee/	.
16a>\	.	16fff#/	.
16g>\JJ	.	16eee/JJ	.
16a>\LL	.	16aaaLL 16fff#/	.
16g>\	.	16eee/	.
16f#>\	.	16ddd/	.
16e>\JJ	.	16eee/JJ	.
*	*	*X8va	*
!!LO:LB:g=original
=45	=45	=45	=45
*	*	*8va	*
!	!	!LO:TX:t=P:problem:takty 45-48 to powtórka tt. 41-44, wziętych w łuk na dole i z adnotacja "bis"	!
4d>\	.	16dddd/LL	.
.	.	16fff#/	.
.	.	16aaa/	.
.	.	16eee/JJ	.
4a^\	.	16dddd/LL	.
.	.	16fff#/	.
.	.	16aaa/	.
.	.	16eee/JJ	.
=46	=46	=46	=46
4A\	.	16dddd/LL	.
.	.	16fff#/	.
.	.	16aaa/	.
.	.	16eee/JJ	.
4AA\	.	16dddd/LL	.
.	.	16fff#/	.
.	.	16aaa/	.
.	.	16eee/JJ	.
=47	=47	=47	=47
4AA 4DD\	.	16dddd/LL	.
.	.	16fff#/	.
.	.	16aaa/	.
.	.	16eee/JJ	.
16a>\LL	.	16aaaLL 16fff#/	.
16g>\	.	16eee/	.
16a>\	.	16fff#/	.
16g>\JJ	.	16eee/JJ	.
=48	=48	=48	=48
16a>\LL	.	16aaaLL 16fff#/	.
16g>\	.	16eee/	.
16a>\	.	16fff#/	.
16g>\JJ	.	16eee/JJ	.
16a>\LL	.	16aaaLL 16fff#/	.
16g>\	.	16eee/	.
16f#>\	.	16ddd/	.
16e>\JJ	.	16eee/JJ	.
*	*	*X8va	*
!!LO:PB:g=original
=49	=49	=49	=49
*	*	*8va	*
!	!	!LO:TX:t=P:problem:tt. 49-57 zapisane ołówkiem	!
4d>\yy	.	16dddd/LLyy	.
.	.	16fff#/yy	.
.	.	16aaa/yy	.
.	.	16eee/JJyy	.
4ayy 4f#\yy	.	16dddd/LLyy	.
.	.	16fff#/yy	.
.	.	16aaa/yy	.
.	.	16eee/JJyy	.
=50	=50	=50	=50
4A\yy	.	16dddd/LLyy	.
.	.	16fff#/yy	.
.	.	16aaa/yy	.
.	.	16eee/JJyy	.
4AA\yy	.	16dddd/LLyy	.
.	.	16fff#/yy	.
.	.	16aaa/yy	.
.	.	16eee/JJyy	.
=51	=51	=51	=51
*8ba	*	*	*
4AAAyy 4DDD\yy	.	16dddd/LLyy	.
.	.	16fff#/yy	.
.	.	16aaa/yy	.
.	.	16eee/JJyy	.
*	*	*X8va	*
8DDD\Lyy	.	16ddd/LLyy	.
.	.	16eee/yy	.
8AAA\Jyy	.	16fff#/yy	.
.	.	16aaJJyy 16ff#/yy	.
=52	=52	=52	=52
8DDD\Lyy	.	16ddd/LLyy	.
.	.	16ff#/yy	.
8AAA\Jyy	.	16aa/yy	.
.	.	16ee/JJyy	.
8DDD\Lyy	.	16dd/LLyy	.
.	.	16ee/yy	.
8AAA\Jyy	.	16ff#/yyyy	.
.	.	16a/JJyy	.
=53	=53	=53	=53
8DDD\Lyy	.	16dd/LLyy	.
.	.	16f#/yy	.
8AAA\yy	.	16a/yy	.
.	.	16e/JJyy	.
8DDD\yy	.	16d/LLyy	.
.	.	16e/yy	.
8AAA\Jyy	.	16f#/yy	.
.	.	16A/JJyy	.
*X8ba	*	*	*
!!LO:LB:g=original
=54	=54	=54	=54
8DD\L	.	16d/LL	.
.	.	16F#</	.
8AA\	.	16A/	.
.	.	16E</JJ	.
8DD\	.	16D</LL	.
.	.	16E</	.
8AA\J	.	16F#</	.
.	.	16E</JJ	.
=55	=55	=55	=55
!LO:TX:b:t=lew.	!	!	!
16AALL 16DD\	.	16d<LL 16F#</	.
16D\	.	16A< 16E</	.
16AA 16DD\	.	16d< 16F#</	.
16D\JJ	.	16A<JJ 16E</	.
16AALL 16DD\	.	16d</LL	.
16D\	.	16A< 16E</	.
16AA 16DD\	.	16d< 16F#</	.
16D\JJ	.	16A<JJ 16E</	.
=56	=56	=56	=56
!	!	!LO:TX:t=P:problem:takty zapisany powtórką, wzięty w łuk na górze i z adnotacja "bis"	!
16AALLyy 16DD\yy	.	16d<LLyy 16F#</yy	.
16D\yy	.	16A<yy 16E</yy	.
16AAyy 16DD\yy	.	16d<yy 16F#</yy	.
16D\JJyy	.	16A<JJyy 16E</yy	.
16AALLyy 16DD\yy	.	16d</LLyy	.
16D\yy	.	16A<yy 16E</yy	.
16AAyy 16DD\yy	.	16d<yy 16F#</yy	.
16D\JJyy	.	16A<JJyy 16E</yy	.
=57	=57	=57	=57
2AA 2DD\	.	2d< 2F#</	.
=58:|!|:	=58:|!|:	=58:|!|:	=58:|!|:
2BB-X 2BBB-X\	.	8r	.
.	.	8fn/	.
.	.	8fM</L	.
.	.	16e-X/L	.
.	.	16d/JJ	.
=59	=59	=59	=59
16fn>\LL	.	8r	.
16e-X>\	.	.	.
16d>\	.	8ffn/L	.
16f>\JJ	.	.	.
16e-X>\LL	.	8gg/	.
16d>\	.	.	.
16c>\	.	8aa/J	.
16e->\JJ	.	.	.
=60	=60	=60	=60
16d>\LL	.	8bb-X/L	.
16B-X>\	.	.	.
16A>\	.	8ccc/	.
16G>\JJ	.	.	.
16Fn\LL	.	8ddd/	.
16B-X\	.	.	.
16A\	.	8eee-X/J	.
16G\JJ	.	.	.
=61	=61	=61	=61
16Fn\LL	.	8fffn/	.
16A\	.	.	.
16F\	.	4fff\	.
16A\JJ	.	.	.
16G\LL	.	.	.
16B-X\	.	.	.
16G#X\	.	[8fff\	.
16Bn\JJ	.	.	.
!!LO:LB:g=original
=62	=62	=62	=62
*^	*	*	*
16A/LL	[2Fn\	.	4fff\]	.
16c/	.	.	.	.
16A/	.	.	.	.
16c/JJ	.	.	.	.
16B/LL	.	.	4ffn\	.
16d/	.	.	.	.
16B/	.	.	.	.
16d/JJ	.	.	.	.
=63	=63	=63	=63	=63
!	!	!	!LO:TX:b=2:t=m.d.	!
16c/LL	2F\]	.	4FFny<\	.
16e-X/	.	.	.	.
16c/	.	.	.	.
16e-/JJ	.	.	.	.
16B-X/LL	.	.	4r	.
16d/	.	.	.	.
16B-/	.	.	.	.
16d/JJ	.	.	.	.
=64	=64	=64	=64	=64
16F/LL	[2Fn\	.	4fffn\	.
16A/	.	.	.	.
16F/	.	.	.	.
16A/JJ	.	.	.	.
16B-X/LL	.	.	4ffn\	.
16d/	.	.	.	.
16B-/	.	.	.	.
16d/JJ	.	.	.	.
=65	=65	=65	=65	=65
!	!	!	!LO:TX:b=2:t=m.d.	!
16c/LL	2F\]	.	4FFny<\	.
16e-X/	.	.	.	.
16c/	.	.	.	.
16e-/JJ	.	.	.	.
16B-X/LL	.	.	4r	.
16d/	.	.	.	.
16B-/	.	.	.	.
16d/JJ	.	.	.	.
*	*	*	*clefF4	*
=66	=66	=66	=66	=66
16A/LL	2Fn\	4	16FFn/LL	.
16B-X/	.	.	16GG/	.
16c/	.	.	16AA/	.
16d/JJ	.	1	16BB-X/JJ	.
16e/LL	.	2	16C/LL	.
16d/	.	1	16BB-/	.
16c/	.	.	16AA/	.
16B-/JJ	.	.	16GG/JJ	.
=67	=67	=67	=67	=67
16A/LL	2Fn\	4	16FFn/LL	.
16B-X/	.	.	16GG/	.
16c/	.	.	16AA/	.
16d/JJ	.	.	16BB-X/JJ	.
16e-X/LL	.	.	16C/LL	.
16d/	.	.	16BB-/	.
16c/	.	.	16AA/	.
16B-/JJ	.	.	16GG/JJ	.
*v	*v	*	*	*
=68	=68	=68	=68
4A 4Fn\	.	16FFn/LL	.
.	.	16GG/	.
.	.	16AA/	.
.	.	16BB-X/JJ	.
!LO:N:vis=4	!	!	!
8fn\	.	16C/LL	.
.	.	16D/	.
!LO:N:vis=4	!	!	!
8r	.	16E-X/	.
.	.	16Fny/JJ	.
*	*	*clefG2	*
!!LO:LB:g=original
=69	=69	=69	=69
4FFn\	.	16G/LL	.
.	.	16A/	.
.	.	16B-X/	.
.	.	16c/JJ	.
!	!	!LO:TUP:a:problem:klamra łukowa	!
4FFFny\	.	20d/LL	.
.	.	20e-X/	.
.	.	20fn/	.
.	.	20g/	.
.	.	20a/JJ	.
=70	=70	=70	=70
4BBB-X\	.	8b-X/	.
.	.	8b-/	.
4r	.	8b-M/L	.
.	.	16a-X/L	.
.	.	16g/JJ	.
=71	=71	=71	=71
16b-X>\LL	.	8r	.
16a-X>\	.	.	.
16g>\	.	8bb-X/L	.
16b->\JJ	.	.	.
16a->\LL	.	8ccc/	.
16g>\	.	.	.
16fn>\	.	8ddd/J	.
16a->\JJ	.	.	.
=72	=72	=72	=72
16g>\LL	.	8eee-X/L	.
16e-X>\	.	.	.
16d>\	.	8fffn/	.
16c>\JJ	.	.	.
16B-X>\LL	.	8ggg/	.
16e->\	.	.	.
16d>\	.	8aaa-X/J	.
16c>\JJ	.	.	.
=73	=73	=73	=73
16B-X>\LL	.	8bbb-X/	.
16d>\	.	.	.
16B->\	.	4bbb-/	.
16d>\JJ	.	.	.
16c>\LL	.	.	.
16e-X>\	.	.	.
16c#X>\	.	[>8bbb-/	.
16en>\JJ	.	.	.
=74	=74	=74	=74
*^	*	*	*
16d>\LL	[<2B-X\	.	4bbb-/]	.
16fn>\	.	.	.	.
16d>\	.	.	.	.
16f>\JJ	.	.	.	.
16e-X>\LL	.	.	4bb-X/	.
16g>\	.	.	.	.
16e->\	.	.	.	.
16g>\JJ	.	.	.	.
=75	=75	=75	=75	=75
16f#>\LL	2B-\]	.	4BBB-X<\	.
16a>\	.	.	.	.
16f#>\	.	.	.	.
16a>\JJ	.	.	.	.
16e-X>\LL	.	.	4r	.
16g>\	.	.	.	.
16e->\	.	.	.	.
16g>\JJ	.	.	.	.
!!LO:LB:g=original
=76	=76	=76	=76	=76
16d>\LL	[<2B-X\	.	4bbb-X/	.
16fn>\	.	.	.	.
16d>\	.	.	.	.
16f>\JJ	.	.	.	.
16e-X>\LL	.	.	4bb-X/	.
16g>\	.	.	.	.
16e->\	.	.	.	.
16g>\JJ	.	.	.	.
=77	=77	=77	=77	=77
16fn>\LL	2B-\]	.	4BBB-X<\	.
16a-X>\	.	.	.	.
16f>\	.	.	.	.
16a->\JJ	.	.	.	.
16e-X>\LL	.	.	4ryy	.
16g>\	.	.	.	.
16e->\	.	.	.	.
16g>\JJ	.	.	.	.
=78	=78	=78	=78	=78
!LO:TX:a:t=m.ſ.	!	!	!	!
!LO:TX:t=P:problem:palcowanie wyświetla się w złym miejscu, bo ręce się krzyżują	!	!	!	!
16d>/LL	2B-X>\	4	16BB-X<\LL	.
16e-X>/	.	.	16C<\	.
16fn>/	.	.	16D<\	.
16g>/JJ	.	1	16E-X<\JJ	.
16a-X>/LL	.	2	16Fn<\LL	.
16g>/	.	1	16E-<\	.
16f>/	.	2	16D<\	.
16e->/JJ	.	3	16C<\JJ	.
=79	=79	=79	=79	=79
16d>/LL	2B-X>\	.	16BB-X<\LL	.
16e-X>/	.	.	16C<\	.
16fn>/	.	.	16D<\	.
16g>/JJ	.	.	16E-X<\JJ	.
16a-X>/LL	.	.	16Fn<\LL	.
16g>/	.	.	16E-<\	.
16f>/	.	.	16D<\	.
16e->/JJ	.	.	16C<\JJ	.
*v	*v	*	*	*
=80	=80	=80	=80
4d> 4B-X>\	.	(16BB-X<\LL	.
.	.	16C<\	.
.	.	16D<\	.
.	.	16E-X<\JJ	.
4b-X>\	.	16Fn<\LL	.
.	.	16G<\	.
.	.	16A-X<\	.
.	.	16B-X<\JJ	.
=81	=81	=81	=81
4BB-X\	.	16c/LL	.
.	.	16d/	.
.	.	16e-X/	.
.	.	16fn/JJ	.
!	!	!LO:TUP:a:problem:klamra łukowa	!
4BBB-X\	.	20g/LL	.
.	.	20a-X/	.
.	.	20b-X/	.
.	.	20cc/	.
.	.	20dd/JJ)	.
=82	=82	=82	=82
4EE-X\	.	8ee-X/L	.
.	.	8bb-X/J	.
16g>\LL	.	8bb-M/L	.
16b-X>\	.	.	.
16cc>\	.	16aa-X/L	.
16b->\JJ	.	16gg/JJ	.
!!LO:LB:g=original
=83	=83	=83	=83
16fn>\LL	.	16aa-X/LL	.
16b-X>\	.	16gg/	.
16cc>\	.	16ffn/	.
16b->\JJ	.	16aa-/JJ	.
16e-X>\LL	.	16gg/LL	.
16b->\	.	16ff/	.
16cc>\	.	16ee-X/	.
16b->\JJ	.	16gg/JJ	.
=84	=84	=84	=84
16d>\LL	.	8ffn/L	.
16fn>\	.	.	.
16b-X>\	.	8fffn/J	.
16cc>\JJ	.	.	.
16dd>\LL	.	8fffM/L	.
16ffn>\	.	.	.
16gg>\	.	16eee-X/L	.
16ff>\JJ	.	16ddd/JJ	.
=85	=85	=85	=85
16cc>\LL	.	16eee-X/LL	.
16ffn>\	.	16ddd/	.
16gg>\	.	16eee-/	.
16ff>\JJ	.	16ggg/JJ	.
16b-X>\LL	.	16ddd/LL	.
16ff>\	.	16ccc/	.
16gg>\	.	16bb-X/	.
16ff>\JJ	.	16fffn/JJ	.
=86	=86	=86	=86
8gg> 8fn>\L	.	16eee-X/LL	.
.	.	16fffn/	.
8ffn>\	.	16ddd/	.
.	.	16ggg/JJ	.
8ee>\	.	16ccc/LL	.
.	.	16ddd/	.
8dd>\J	.	16bb-X/	.
.	.	16bbb-X/JJ	.
=87	=87	=87	=87
!	!	!LO:TUP:a:problem:klamra łukowa	!
4cc> 4fn>\	.	24aa/LL	.
.	.	24bb-X/	.
.	.	24aa/	.
.	.	24bb-/	.
.	.	24aa/	.
.	.	24bb-/JJ	.
*8va	*	*	*
!	!	!LO:TUP:b:problem:klamra łukowa	!
4ffffn>\	.	20aa/LL	.
*X8va	*	*	*
.	.	20bb-/	.
.	.	20aa/	.
.	.	20gg/	.
.	.	20ffn/JJ	.
=88	=88	=88	=88
8gg> 8fn>\L	.	16eee-X/LL	.
.	.	16fffn/	.
8ffn>\	.	16ddd/	.
.	.	16bbb-X/JJ	.
8ee-X>\	.	16ccc/LL	.
.	.	16ddd/	.
8dd>\J	.	16bb-X/	.
.	.	16bbb-X/JJ	.
=89	=89	=89	=89
!	!	!LO:TUP:a:problem:klamra łukowa	!
4cc> 4fn>\	.	24aa/LL	.
.	.	24bb-X/	.
.	.	24aa/	.
.	.	24bb-/	.
.	.	24aa/	.
.	.	24bb-/JJ	.
*8va	*	*	*
!	!	!LO:TUP:a:problem:klamra łukowa	!
4ffffn>/	.	20aa/LL	.
*X8va	*	*	*
.	.	20bb-/	.
.	.	20aa/	.
.	.	20gg/	.
.	.	20ffn/JJ	.
!!LO:PB:g=original
=90	=90	=90	=90
8ee-X>L 8d>'\	.	16ccc/LL	.
.	.	16ddd/	.
8dd>'\	.	16bb-X/	.
.	.	16ggg/JJ	.
8cc>'\	.	16aa/LL	.
.	.	16bb-/	.
8b->\J	.	16gg/	.
.	.	16ggg/JJ	.
=91	=91	=91	=91
!	!	!LO:TUP:a:problem:klamra łukowa	!
4a> 4d>\	.	24ff#X/LL	.
.	.	24gg/	.
.	.	24ff#/	.
.	.	24gg/	.
.	.	24ff#/	.
.	.	24gg/JJ	.
!LO:TX:a:t=m ſ.	!	!LO:TUP:b:problem:klamra łukowa	!
4dddd>/	.	20ff#/LL	.
.	.	20gg/	.
.	.	20ff#/	.
.	.	20een/	.
.	.	20dd/JJ	.
=92	=92	=92	=92
8ee-X>L 8d>\	.	16ccc/LL	.
.	.	16ddd/	.
8dd>\	.	16bb-X/	.
.	.	16ggg/JJ	.
8cc>\	.	16aa/LL	.
.	.	16bb-/	.
8b-X>\J	.	16gg/	.
.	.	16ggg/JJ	.
=93	=93	=93	=93
!	!	!LO:TUP:a:problem:klamra łukowa	!
4a> 4d>\	.	24ff#X/LL	.
.	.	24gg/	.
.	.	24ff#/	.
.	.	24gg/	.
.	.	24ff#/	.
.	.	24gg/JJ	.
!LO:TX:a:t=m.ſ.	!	!LO:TUP:b:problem:klamra łukowa	!
4bbb>/	.	20ff#/LL	.
.	.	20gg/	.
.	.	20ff#/	.
.	.	20ee/	.
.	.	20dd/JJ	.
=94	=94	=94	=94
8ee-X>L 8d>\	.	16ccc/LL	.
.	.	16ddd/	.
8dd>\	.	16bb-X/	.
.	.	16ccc/JJ	.
8cc>\	.	16aa/LL	.
.	.	16bb-/	.
8b-X>\J	.	16gg/	.
.	.	16aa/JJ	.
=95	=95	=95	=95
8a>\L	.	16ff#X/LL	.
.	.	16gg/	.
8g>\	.	16een/	.
.	.	16ff#/JJ	.
8f#X>\	.	16dd/LL	.
.	.	16ff#/	.
8d>\J	.	16aa/	.
.	.	16ddd/JJ	.
=96	=96	=96	=96
16e-X>\LL	.	8cccL 8gg/	.
16fn>\	.	.	.
16d>\	.	8bb 8ffn'>/	.
16e->\JJ	.	.	.
16c>\LL	.	8aa 8ee-X'>/	.
16d>\	.	.	.
16B-X>\	.	8ggJ 8dd'>/	.
16c>\JJ	.	.	.
!!LO:LB:g=original
=97	=97	=97	=97
16A\LL	.	8ff#L 8cc/	.
16B-X\	.	.	.
16G\	.	8ee-X 8b-X/	.
16A\JJ	.	.	.
16F#X\LL	.	8dd 8a/	.
16G\	.	.	.
16D\	.	8ccJ 8a/	.
16F#\JJ	.	.	.
=98	=98	=98	=98
8G\L	.	16bnLL 16g/	1 3
.	.	16cc/	4
8D\J	.	16a 16f#/	2 3
.	.	16dd/JJ	5
4GG\	.	16bLL 16g/	.
.	.	16cc/	.
.	.	16a 16f#/	.
.	.	16dd/JJ	.
=99	=99	=99	=99
8d\L	.	16bLL 16g/	.
.	.	16cc/	.
8D\J	.	16a 16f#/	.
.	.	16dd/JJ	.
4GG\	.	16bLL 16g/	.
.	.	16cc/	.
.	.	16a 16f#/	.
.	.	16dd/JJ	.
=100	=100	=100	=100
16G\LL	.	8bL 8g/	.
16D\	4	.	.
16E\	.	8gg/J	.
16F#\JJ	.	.	.
16G\LL	1	8ddL 8b/	.
16F#\	4	.	.
16G\	.	8bb/J	.
16A\JJ	.	.	.
=101	=101	=101	=101
16B\LL	.	8ggL 8cc/	.
16A\	4	.	.
16B\	.	8ddd/J	.
16c\JJ	.	.	.
16d\LL	1	8bbL 8gg\	.
16c#X\	4	.	.
16d\	.	8ggg\J	.
16e\JJ	.	.	.
=102	=102	=102	=102
8f#\L	.	16ddLL 16b/	.
.	.	16ee/	.
8F#\J	.	16cc#X 16a#X/	.
.	.	16ff#/JJ	.
4BB\	.	16ddLL 16b/	.
.	.	16ee/	.
.	.	16cc# 16a#/	.
.	.	16ff#/JJ	.
=103	=103	=103	=103
8f#\L	.	16ddLL 16b/	.
.	.	16ee/	.
8F#\J	.	16cc#X 16a#X/	.
.	.	16ff#/JJ	.
4BB\	.	16ddLL 16b/	.
.	.	16ee/	.
.	.	16cc# 16a#/	.
.	.	16ff#/JJ	.
=104	=104	=104	=104
16B\LL	1	8ddL 8b/	.
16A#X\	4	.	.
16B\	.	8bb/J	.
16c#X\JJ	.	.	.
16d\LL	1	8ff#L 8dd/	.
16c#\	4	.	.
16d\	.	8ddd/J	.
16e\JJ	.	.	.
!!LO:LB:g=original
=105	=105	=105	=105
16d\LL	1	8bbL 8ff#/	.
16c#X\	4	.	.
16d\	.	8fff#/J	.
16e\JJ	.	.	.
16f#\LL	1	8bbL 8gg\	.
16e\	4	.	.
16f#\	.	8bbb\J	.
16g\JJ	.	.	.
=106	=106	=106	=106
8a\L	.	16fff#LL 16ddd\	1 3
.	.	16ggg\	4
8A\J	.	16eee 16ccc\	1 2
.	.	16aaa\JJ	5
4D\	.	16fff#LL 16ddd\	.
.	.	16ggg\	.
.	.	16ccc 16aa\	.
.	.	16aaa\JJ	.
*clefG2	*	*	*
=107	=107	=107	=107
8aa\L	.	16fff#LL 16ddd\	.
.	.	16ggg\	.
8a\J	.	16ccc 16aa\	.
.	.	16aaa\JJ	.
4d\	.	16fff#LL 16ddd\	.
.	.	16ggg\	.
.	.	16eee 16ccc\	.
.	.	16aaa\JJ	.
=108	=108	=108	=108
*	*	*8va	*
16aa\LL	.	16fff#\LL	.
16gg\	.	16eee\	.
16ff#\	.	16ddd\	.
16gg\JJ	.	16eee\JJ	.
16aa\LL	.	16fff#\LL	.
16bb\	.	16ggg\	.
16ccc\	.	16aaa\	.
16ddd\JJ	.	16bbb\JJ	.
=109	=109	=109	=109
16eee\LL	.	16cccc\LL	.
16ddd\	.	16bbb\	.
16ccc\	.	16aaa\	.
16ddd\JJ	.	16bbb\JJ	.
16eee\LL	.	16cccc\LL	1
16ddd\	.	16dddd\	.
16ccc\	.	16eeee\	.
16aa\JJ	.	16ffff#\JJ	.
=110	=110	=110	=110
4gg\	.	16gggg\LL	.
.	.	16bbb\	.
.	.	16dddd\	.
.	.	16aaa\JJ	.
4dd\	.	16gggg\LL	.
.	.	16bbb\	.
.	.	16cccc\	.
.	.	16aaa\JJ	.
*	*	*X8va	*
!!LO:LB:g=original
=111	=111	=111	=111
*clefF4	*	*8va	*
4d\	.	16gggg\LL	.
.	.	16bbb\	.
.	.	16dddd\	.
.	.	16aaa\JJ	.
4D\	.	16gggg\LL	.
.	.	16bbb\	.
.	.	16dddd\	.
.	.	16aaa\JJ	.
=112	=112	=112	=112
4D 4FF#\	.	16gggg\LL	.
.	.	16bbb\	.
.	.	16dddd\	.
.	.	16aaa\JJ	.
*clefG2	*	*	*
16ddd\LL	.	16ddddLL 16bbb\	.
16ccc\	.	16aaa\	.
16ddd\	.	16bbb\	.
16ccc\JJ	.	16aaa\JJ	.
=113	=113	=113	=113
16ddd\LL	.	16ddddLL 16bbb\	.
16ccc\	.	16aaa\	.
16ddd\	.	16bbb\	.
16ccc\JJ	.	16aaa\JJ	.
16ddd\LL	.	16ddddLL 16bbb\	.
16ccc\	.	16aaa\	.
16bb\	.	16ggg\	.
16aa\JJ	.	16aaa\JJ	.
=114	=114	=114	=114
4gg\	.	16gggg\LL	.
.	.	16bbb\	.
.	.	16dddd\	.
.	.	16aaa\JJ	.
4dd\	.	16gggg\LL	.
.	.	16bbb\	.
.	.	16dddd\	.
.	.	16aaa\JJ	.
*clefF4	*	*	*
=115	=115	=115	=115
4d\	.	16gggg\LL	.
.	.	16bbb\	.
.	.	16dddd\	.
.	.	16aaa\JJ	.
4D\	.	16gggg\LL	.
.	.	16bbb\	.
.	.	16dddd\	.
.	.	16aaa\JJ	.
=116	=116	=116	=116
4D 4GG\	.	16gggg\LL	.
.	.	16bbb\	.
.	.	16dddd\	.
.	.	16aaa\JJ	.
*clefG2	*	*	*
16ddd\LL	.	16ddddLL 16bbb\	.
16ccc\	.	16aaa\	.
16ddd\	.	16dddd 16bbb\	.
16ccc\JJ	.	16aaa\JJ	.
*	*	*X8va	*
!!LO:LB:g=original
=117	=117	=117	=117
*	*	*8va	*
16ddd\LL	.	16ddddLL 16bbb\	.
16ccc\	.	16aaa\	.
16ddd\	.	16bbb\	.
16ccc\JJ	.	16aaa\JJ	.
16ddd\LL	.	16ddddLL 16bbb\	.
16ccc\	.	16aaa\	.
!LO:TX:a:t=h	!	!	!
16bb\	.	16ggg\	.
!LO:TX:a:t=a	!	!	!
16aa\JJ	.	16aaa\JJ	.
=118	=118	=118	=118
4gg\	.	16gggg\LL	.
.	.	16bbb\	.
.	.	16dddd\	.
.	.	16aaa\JJ	.
4dd\	.	16gggg\LL	.
.	.	16bbb\	.
.	.	16dddd\	.
.	.	16aaa\JJ	.
*clefF4	*	*	*
=119	=119	=119	=119
4d\	.	16gggg\LL	.
.	.	16bbb\	.
.	.	16dddd\	.
.	.	16aaa\JJ	.
4D\	.	16gggg\LL	.
.	.	16bbb\	.
.	.	16dddd\	.
.	.	16aaa\JJ	.
=120	=120	=120	=120
4DD 4GGG\	.	16gggg\LL	.
.	.	16bbb\	.
.	.	16dddd\	.
.	.	16aaa\JJ	.
8GGG\L	.	16ggg\LL	.
.	.	16aaa\	.
8DD\J	.	16bbb\	.
.	.	16ddd\JJ	.
*	*	*X8va	*
=121	=121	=121	=121
!	!	!LO:TX:a:t=loco	!
8GGG\L	.	16ggg\LL	.
.	.	16bb\	.
8DD\	.	16ddd\	.
.	.	16aa\JJ	.
8GGG\	.	16gg\LL	.
.	.	16aa\	.
8DD\J	.	16bb\	.
.	.	16dd\JJ	.
=122	=122	=122	=122
8GGG\L	.	16gg\LL	.
.	.	16b\	.
8DD\	.	16dd\	.
.	.	16a\JJ	.
8GGG\	.	16g/LL	.
.	.	16a/	.
8DD\J	.	16b/	.
.	.	16d/JJ	.
!!LO:LB:g=original
=123	=123	=123	=123
8GGG\L	.	16g/LL	.
.	.	16B/	.
8DD\J	.	16d/	.
.	.	16A/JJ	.
8GGG\L	.	16G/LL	.
.	.	16A/	.
8DD\J	.	16B/	.
.	.	16A/JJ	.
=124	=124	=124	=124
*^	*	*	*
16D/LL	4GG\	.	16gLL 16B/	.
16G/	.	.	16d 16A/	.
16D/	.	.	16g 16B/	.
16G/JJ	.	.	16dJJ 16A/	.
16D/LL	4GG\	.	16gLL 16B/	.
16G/	.	.	16d 16A/	.
16D/	.	.	16g 16B/	.
16G/JJ	.	.	16dJJ 16A/	.
=125	=125	=125	=125	=125
16D/LL	4GG\	.	16gLL 16B/	.
16G/	.	.	16d 16A/	.
16D/	.	.	16g 16B/	.
16G/JJ	.	.	16dJJ 16A/	.
16D/LL	4GG\	.	16gLL 16B/	.
16G/	.	.	16d 16A/	.
[<16D/	.	.	16g 16B/	.
[16GJJ 16D/_<	.	.	16dJJ 16A/	.
=126	=126	=126	=126	=126
2G] 2D/]	2GG\	.	2g 2A/	.
*v	*v	*	*	*
=127	=127	=127	=127
2GG 2GGG\	.	2gg/	.
==	==	==	==
*-	*-	*-	*-
!!!system-decoration: {(s1,s2)}
!!!RDF**kern: > = above
!!!RDF**kern: < = below
!!!ENC: Andrzej Gręziak
!!!END: 2021-11-15
!!!ENC: Marta Lawrence
!!!END: 2021-11-17
